content/fr/images/chapitre6/bar-chart.svg

<svg height="1000" width="1142.9" xmlns="http://www.w3.org/2000/svg"><path d="m357.1 500v285.7h-142.8v-285.7h142.8z m214.3-285.7v571.4h-142.8v-571.4h142.8z m571.5 642.8v71.5h-1142.9v-857.2h71.4v785.7h1071.5z m-357.2-500v428.6h-142.8v-428.6h142.8z m214.3-214.2v642.8h-142.9v-642.8h142.9z" /></svg>

<?xml version="1.0" encoding="utf-8"?>
<!-- Generator: Adobe Illustrator 24.3.0, SVG Export Plug-In . SVG Version: 6.00 Build 0)  -->
<svg version="1.1" id="Calque_1" xmlns="http://www.w3.org/2000/svg" xmlns:xlink="http://www.w3.org/1999/xlink" x="0px" y="0px"
	 viewBox="0 0 1142.9 1000" style="enable-background:new 0 0 1142.9 1000;" xml:space="preserve">
<style type="text/css">
	.st0{fill:#333333;}
</style>
<path class="st0" d="M357.1,500v285.7H214.3V500H357.1z M571.4,214.3v571.4H428.6V214.3H571.4z M1142.9,857.1v71.5H0V71.4h71.4
	v785.7H1142.9z M785.7,357.1v428.6H642.9V357.1L785.7,357.1L785.7,357.1z M1000,142.9v642.8H857.1V142.9L1000,142.9L1000,142.9z"/>
</svg>
